build/img/icons/blank.svg

<svg width="24" height="25" viewBox="0 0 24 25" fill="none" xmlns="http://www.w3.org/2000/svg">
<path d="M21.0004 11.5H18.0004V4.5C18.0004 4.23478 17.895 3.98043 17.7075 3.79289C17.5199 3.60536 17.2656 3.5 17.0004 3.5H3.00037C2.73515 3.5 2.4808 3.60536 2.29326 3.79289C2.10572 3.98043 2.00037 4.23478 2.00037 4.5V18.5C2.00037 20.154 3.34637 21.5 5.00037 21.5H19.0004C20.6544 21.5 22.0004 20.154 22.0004 18.5V12.5C22.0004 12.2348 21.895 11.9804 21.7075 11.7929C21.5199 11.6054 21.2656 11.5 21.0004 11.5ZM5.00037 19.5C4.73515 19.5 4.4808 19.3946 4.29326 19.2071C4.10572 19.0196 4.00037 18.7652 4.00037 18.5V5.5H16.0004V18.5C16.0004 18.851 16.0614 19.188 16.1714 19.5H5.00037ZM20.0004 18.5C20.0004 18.7652 19.895 19.0196 19.7075 19.2071C19.5199 19.3946 19.2656 19.5 19.0004 19.5C18.7351 19.5 18.4808 19.3946 18.2933 19.2071C18.1057 19.0196 18.0004 18.7652 18.0004 18.5V13.5H20.0004V18.5Z" fill="white"/>
<path d="M6 7.50015H14V9.50015H6V7.50015ZM6 11.5002H14V13.5002H6V11.5002ZM11 15.5002H14V17.5002H11V15.5002Z" fill="white"/>
</svg>

<svg width="24" height="25" fill="none" xmlns="http://www.w3.org/2000/svg">
    <path d="M21 11.5h-3v-7a1 1 0 0 0-1-1H3a1 1 0 0 0-1 1v14c0 1.654 1.346 3 3 3h14c1.654 0 3-1.346 3-3v-6a1 1 0 0 0-1-1zm-16 8a1 1 0 0 1-1-1v-13h12v13c0 .351.061.688.171 1H5.001zm15-1a1 1 0 0 1-2 0v-5h2v5z" fill="#fff"/>
    <path d="M6 7.5h8v2H6v-2zm0 4h8v2H6v-2zm5 4h3v2h-3v-2z" fill="#fff"/>
</svg>
